src/img/icons/cards/amex.svg

<?xml version="1.0" encoding="UTF-8" standalone="no"?>
<svg width="100px" height="60px" viewBox="0 0 100 60" version="1.1" xmlns="http://www.w3.org/2000/svg" xmlns:xlink="http://www.w3.org/1999/xlink">
    <!-- Generator: Sketch 3.8.3 (29802) - http://www.bohemiancoding.com/sketch -->
    <title>AmericanExpress-dark</title>
    <desc>Created with Sketch.</desc>
    <defs></defs>
    <g id="Payment-badge-set" stroke="none" stroke-width="1" fill="none" fill-rule="evenodd">
        <g id="Dark-Payment-badges" transform="translate(-770.000000, -164.000000)">
            <g id="AmericanExpress-dark" transform="translate(770.000000, 164.000000)">
                <rect id="Rectangle" fill="#0072CE" x="0" y="0" width="100" height="60" rx="4"></rect>
                <path d="M84.4073613,34.6655831 L80.8743204,34.6655831 C80.5215789,34.6655831 80.2872333,34.6787528 80.0898253,34.8116695 C79.8853233,34.9426352 79.8065558,35.1370107 79.8065558,35.3935765 C79.8065558,35.6986753 79.9792573,35.9062205 80.2304816,35.9959698 C80.4349836,36.06694 80.654652,36.0876701 80.9775498,36.0876701 L82.028191,36.1157168 C83.0883724,36.1418123 83.7960569,36.3235058 84.2275659,36.7666429 C84.3060888,36.8283455 84.3533003,36.8976086 84.4073613,36.9668716 L84.4073613,34.6655831 Z M84.4073613,39.9976169 C83.9364685,40.68415 83.0189004,41.0321724 81.7767221,41.0321724 L78.0330637,41.0321724 L78.0330637,39.2979139 L81.7615557,39.2979139 C82.1314205,39.2979139 82.390228,39.249381 82.5460507,39.0976853 C82.6810808,38.9725728 82.7752593,38.7908793 82.7752593,38.5701644 C82.7752593,38.3345725 82.6810808,38.1475136 82.5384675,38.035327 C82.3978113,37.9119217 82.1930646,37.8558284 81.8554896,37.8558284 C80.0352751,37.7941258 77.7644714,37.9119217 77.7644714,35.352604 C77.7644714,34.1795225 78.5115396,32.9447383 80.5457962,32.9447383 L84.4071167,32.9447383 L84.4071167,31.3355923 L80.8195256,31.3355923 C79.7368392,31.3355923 78.9503872,31.5941092 78.3933884,31.9960299 L78.3933884,31.3355923 L73.0868554,31.3355923 C72.23827,31.3355923 71.2421789,31.5453324 70.7710416,31.9960299 L70.7710416,31.3355923 L61.2949675,31.3355923 L61.2949675,31.9960299 C60.5408052,31.4536321 59.2682941,31.3355923 58.6809624,31.3355923 L52.4304424,31.3355923 L52.4304424,31.9960299 C51.8338152,31.4199761 50.5069984,31.3355923 49.698286,31.3355923 L42.7028993,31.3355923 L41.1021086,33.0627781 L39.6028351,31.3355923 L29.1531749,31.3355923 L29.1531749,42.6205882 L39.4061609,42.6205882 L41.0556309,40.8660874 L42.6094546,42.6205882 L48.9294466,42.6261976 L48.9294466,39.9715213 L49.5507804,39.9715213 C50.3893364,39.9844471 51.3783335,39.9507911 52.2508916,39.5747222 L52.2508916,42.6203444 L57.4637353,42.6203444 L57.4637353,39.6791045 L57.7152042,39.6791045 C58.0361451,39.6791045 58.0677011,39.6922742 58.0677011,40.012006 L58.0677011,42.6201005 L73.9033956,42.6201005 C74.9087822,42.6201005 75.959668,42.3635346 76.541618,41.8979602 L76.541618,42.6201005 L81.5646369,42.6201005 C82.6098964,42.6201005 83.630694,42.474014 84.4073613,42.0998961 L84.4073613,39.9976169 L84.4073613,39.9976169 Z M76.6746911,36.7666429 C77.0521391,37.1561255 77.2544395,37.6477954 77.2544395,38.4801712 C77.2544395,40.220039 76.1641699,41.0321724 74.2091701,41.0321724 L70.4334665,41.0321724 L70.4334665,39.2979139 L74.1940037,39.2979139 C74.5616669,39.2979139 74.8224314,39.249381 74.9858373,39.0976853 C75.119155,38.9725728 75.2148013,38.7908793 75.2148013,38.5701644 C75.2148013,38.3345725 75.1113272,38.1475136 74.9782541,38.035327 C74.8300146,37.9119217 74.6255127,37.8558284 74.2879376,37.8558284 C72.4750617,37.7941258 70.2047472,37.9119217 70.2047472,35.352604 C70.2047472,34.1795225 70.9439877,32.9447383 72.9762873,32.9447383 L76.8625589,32.9447383 L76.8625589,34.6660708 L73.3065238,34.6660708 C72.9540269,34.6660708 72.7248184,34.6792406 72.5298565,34.8121573 C72.3175267,34.943123 72.2387592,35.1374984 72.2387592,35.3940643 C72.2387592,35.6991631 72.4190439,35.9067083 72.6629296,35.9964575 C72.8674316,36.0674278 73.0871,36.0881579 73.4173364,36.0881579 L74.4608837,36.1162045 C75.5132372,36.1418123 76.2355989,36.323262 76.6746911,36.7666429 L76.6746911,36.7666429 Z M59.1824326,36.2671687 C58.9231358,36.4205716 58.6024395,36.4337414 58.2252361,36.4337414 L55.8702832,36.4337414 L55.8702832,34.6172941 L58.2572813,34.6172941 C58.6024395,34.6172941 58.9478424,34.6246106 59.1824326,34.7633805 C59.4336569,34.8943462 59.5838534,35.1448149 59.5838534,35.4908862 C59.5838534,35.8369575 59.4336569,36.1157168 59.1824326,36.2671687 L59.1824326,36.2671687 Z M60.353182,37.2736775 C60.784691,37.432446 61.1374325,37.7170585 61.3027953,37.9526503 C61.5765246,38.3474984 61.616153,38.7160069 61.6239808,39.4288796 L61.6239808,41.0321724 L59.6777873,41.0321724 L59.6777873,40.0202981 C59.6777873,39.5337497 59.7247543,38.8133166 59.3644296,38.4372476 C59.0811601,38.1475136 58.6494065,38.0782505 57.9422112,38.0782505 L55.8705278,38.0782505 L55.8705278,41.0321724 L53.9226219,41.0321724 L53.9226219,32.9444944 L58.3981822,32.9444944 C59.379596,32.9444944 60.0943745,32.9876618 60.7306301,33.3261727 C61.3424237,33.6946813 61.7272103,34.1995209 61.7272103,35.1221337 C61.7269657,36.4130112 60.8634585,37.0717417 60.353182,37.2736775 L60.353182,37.2736775 Z M62.8020688,32.9444944 L69.2720127,32.9444944 L69.2720127,34.6170502 L64.7326067,34.6170502 L64.7326067,36.0874262 L69.1612,36.0874262 L69.1612,37.7375447 L64.7326067,37.7375447 L64.7326067,39.3466907 L69.2720127,39.3540072 L69.2720127,41.0321724 L62.8020688,41.0321724 L62.8020688,32.9444944 L62.8020688,32.9444944 Z M49.7229926,36.6768936 L47.2178433,36.6768936 L47.2178433,34.6172941 L49.7454976,34.6172941 C50.4453543,34.6172941 50.9311688,34.9016627 50.9311688,35.608926 C50.9311688,36.308385 50.4678593,36.6768936 49.7229926,36.6768936 L49.7229926,36.6768936 Z M45.2870608,40.2966185 L42.3107741,37.0022348 L45.2870608,33.8124772 L45.2870608,40.2966185 L45.2870608,40.2966185 Z M37.6008683,39.3466907 L32.8347,39.3466907 L32.8347,37.7375447 L37.0905918,37.7375447 L37.0905918,36.0874262 L32.8347,36.0874262 L32.8347,34.6170502 L37.6948022,34.6170502 L39.8151649,36.9739442 L37.6008683,39.3466907 L37.6008683,39.3466907 Z M53.0123924,35.608926 C53.0123924,37.8555845 51.3311219,38.3194517 49.6366419,38.3194517 L47.2178433,38.3194517 L47.2178433,41.0321724 L43.4499676,41.0321724 L41.0629695,38.3548149 L38.5822821,41.0321724 L30.9036728,41.0321724 L30.9036728,32.9444944 L38.7004334,32.9444944 L41.0854745,35.5955124 L43.5512401,32.9444944 L49.7454976,32.9444944 C51.2839103,32.9444944 53.0123924,33.3690962 53.0123924,35.608926 L53.0123924,35.608926 Z" id="EXPRESS" fill="#FFFFFF"></path>
                <path d="M21.6548503,23.6242271 L20.3280336,20.4008136 L19.0088001,23.6242271 L21.6548503,23.6242271 Z M50.8844465,22.3406661 C50.6180557,22.5018734 50.3029857,22.5072388 49.9255376,22.5072388 L47.5705847,22.5072388 L47.5705847,20.7112778 L49.9575828,20.7112778 C50.2954025,20.7112778 50.6478993,20.7263986 50.8768633,20.8571204 C51.1283322,20.9749163 51.2839103,21.2256289 51.2839103,21.5719441 C51.2839103,21.9253318 51.1359154,22.2097005 50.8844465,22.3406661 L50.8844465,22.3406661 Z M67.6844315,23.6242271 L66.3429376,20.4008136 L65.0087823,23.6242271 L67.6844315,23.6242271 L67.6844315,23.6242271 Z M36.3682301,27.1132302 L34.3809405,27.1132302 L34.3736019,20.7805408 L31.562678,27.1132302 L29.8606148,27.1132302 L27.0423524,20.7749315 L27.0423524,27.1132302 L23.0995737,27.1132302 L22.354707,25.3097088 L18.3184836,25.3097088 L17.5660337,27.1132302 L15.4605928,27.1132302 L18.9319895,19.0275033 L21.8121407,19.0275033 L25.1091237,26.683019 L25.1091237,19.0275033 L28.2730336,19.0275033 L30.8099835,24.5126962 L33.1404745,19.0275033 L36.3679855,19.0275033 L36.3679855,27.1132302 L36.3682301,27.1132302 Z M44.2887682,27.1132302 L37.8129535,27.1132302 L37.8129535,19.0275033 L44.2887682,19.0275033 L44.2887682,20.7112778 L39.7515638,20.7112778 L39.7515638,22.168728 L44.1799124,22.168728 L44.1799124,23.826163 L39.7515638,23.826163 L39.7515638,25.4409183 L44.2887682,25.4409183 L44.2887682,27.1132302 L44.2887682,27.1132302 Z M53.4194394,21.2051427 C53.4194394,22.494313 52.5564215,23.1603599 52.0534836,23.3603447 C52.4776539,23.5213081 52.8399356,23.8056767 53.0123924,24.0412686 C53.2861217,24.4434331 53.3333333,24.8026741 53.3333333,25.5248144 L53.3333333,27.1132302 L51.3780888,27.1132302 L51.3707502,26.0935516 C51.3707502,25.6070033 51.4174726,24.9073003 51.0647311,24.5183055 C50.7814616,24.2339369 50.349708,24.1722342 49.6518083,24.1722342 L47.5708294,24.1722342 L47.5708294,27.1132302 L45.6324636,27.1132302 L45.6324636,19.0275033 L50.0911451,19.0275033 C51.0818545,19.0275033 51.8117994,19.0535989 52.4385148,19.4147909 C53.0517761,19.775983 53.4194394,20.30326 53.4194394,21.2051427 L53.4194394,21.2051427 Z M56.5217052,27.1132302 L54.5437111,27.1132302 L54.5437111,19.0275033 L56.5217052,19.0275033 L56.5217052,27.1132302 L56.5217052,27.1132302 Z M79.4689808,27.1132302 L76.7219026,27.1132302 L73.0474716,21.0444232 L73.0474716,27.1132302 L69.0995559,27.1132302 L68.345149,25.3097088 L64.3182211,25.3097088 L63.5863193,27.1132302 L61.3179617,27.1132302 C60.375687,27.1132302 59.1826772,26.9054412 58.5070379,26.218908 C57.8257723,25.5323748 57.4713185,24.6024455 57.4713185,23.1320694 C57.4713185,21.9328922 57.6831591,20.8366341 58.5163334,19.9703585 C59.1430488,19.3250417 60.1244627,19.0275033 61.4603303,19.0275033 L63.3370519,19.0275033 L63.3370519,20.7600546 L61.4997141,20.7600546 C60.7922742,20.7600546 60.3928104,20.8649246 60.0080238,21.2390425 C59.6775427,21.5795045 59.4507803,22.2231141 59.4507803,23.0706107 C59.4507803,23.9368863 59.6234817,24.561473 59.9838064,24.9694907 C60.2822423,25.2894664 60.824564,25.3865322 61.3348405,25.3865322 L62.2054416,25.3865322 L64.937598,19.0277472 L67.8422111,19.0277472 L71.1242723,26.6757025 L71.1242723,19.0277472 L74.0758524,19.0277472 L77.4834035,24.6590265 L77.4834035,19.0277472 L79.4689808,19.0277472 L79.4689808,27.1132302 L79.4689808,27.1132302 Z M15.4380878,28.7014022 L18.7502372,28.7014022 L19.4970608,26.9054412 L21.1690358,26.9054412 L21.9139025,28.7014022 L28.4308133,28.7014022 L28.4308133,27.3283358 L29.0125187,28.7072554 L32.3956078,28.7072554 L32.9773132,27.3078496 L32.9773132,28.7014022 L49.1730877,28.7014022 L49.1655045,25.7533336 L49.4788623,25.7533336 C49.698286,25.760894 49.7623764,25.7811364 49.7623764,26.1423284 L49.7623764,28.7014022 L58.1388854,28.7014022 L58.1388854,28.0151129 C58.8145247,28.3760611 59.8654105,28.7014022 61.2482451,28.7014022 L64.7722351,28.7014022 L65.5263973,26.9054412 L67.1983723,26.9054412 L67.9359004,28.7014022 L74.7267852,28.7014022 L74.7267852,26.9954343 L75.755166,28.7014022 L81.1969736,28.7014022 L81.1969736,17.4242105 L75.8114285,17.4242105 L75.8114285,18.7560605 L75.0572663,17.4242105 L69.5310648,17.4242105 L69.5310648,18.7560605 L68.8385467,17.4242105 L61.3739796,17.4242105 C60.1244627,17.4242105 59.0261207,17.5980997 58.1388854,18.0826971 L58.1388854,17.4242105 L52.9876858,17.4242105 L52.9876858,18.0826971 C52.4231038,17.5832228 51.6537751,17.4242105 50.7983404,17.4242105 L31.9790206,17.4242105 L30.7162942,20.336916 L29.4195657,17.4242105 L23.4919435,17.4242105 L23.4919435,18.7560605 L22.8407661,17.4242105 L17.7854575,17.4242105 L15.4378431,22.7859981 L15.4378431,28.7014022 L15.4380878,28.7014022 Z" id="AMERICAN" fill="#FFFFFF"></path>
            </g>
        </g>
    </g>
</svg>

<svg width="100" height="60" viewBox="0 0 100 60" xmlns="http://www.w3.org/2000/svg"><title>AmericanExpress-dark</title><g fill="none" fill-rule="evenodd"><rect fill="#0072CE" width="100" height="60" rx="4"/><path d="M84.407 34.666h-3.533c-.352 0-.587.013-.784.146-.205.13-.283.325-.283.582 0 .305.172.512.423.602.205.07.425.092.748.092l1.05.028c1.06.026 1.768.208 2.2.65.078.062.125.132.18.2v-2.3zm0 5.332c-.47.686-1.388 1.034-2.63 1.034h-3.744v-1.734h3.73c.368 0 .627-.05.783-.2.135-.125.23-.307.23-.528 0-.235-.095-.422-.238-.535-.14-.123-.345-.18-.683-.18-1.82-.06-4.09.057-4.09-2.502 0-1.173.747-2.408 2.78-2.408h3.862v-1.61H80.82c-1.083 0-1.87.26-2.427.66v-.66h-5.306c-.85 0-1.845.21-2.316.66v-.66h-9.475v.66c-.754-.54-2.027-.66-2.614-.66h-6.25v.66c-.596-.575-1.923-.66-2.732-.66h-6.995l-1.6 1.728-1.5-1.727h-10.45V42.62h10.253l1.65-1.754 1.553 1.755 6.32.006v-2.654h.62c.84.012 1.828-.02 2.7-.397v3.045h5.214v-2.94h.25c.322 0 .354.012.354.332v2.608h15.835c1.006 0 2.057-.256 2.64-.722v.722h5.022c1.045 0 2.066-.146 2.842-.52v-2.102zm-7.732-3.23c.377.388.58.88.58 1.712 0 1.74-1.09 2.552-3.046 2.552h-3.777v-1.734h3.76c.37 0 .63-.05.793-.2.133-.125.23-.307.23-.528 0-.235-.105-.422-.238-.535-.148-.123-.352-.18-.69-.18-1.813-.06-4.083.057-4.083-2.502 0-1.173.74-2.408 2.77-2.408h3.888v1.72h-3.556c-.353 0-.582.014-.777.147-.212.13-.29.325-.29.582 0 .305.18.513.423.602.204.07.424.092.754.092l1.044.028c1.053.026 1.776.207 2.215.65zm-17.493-.5c-.26.153-.58.166-.957.166H55.87v-1.817h2.387c.345 0 .69.008.925.146.252.13.402.382.402.728 0 .347-.15.626-.402.777zm1.17 1.006c.433.158.785.443.95.68.275.393.314.762.322 1.475v1.602h-1.946V40.02c0-.486.047-1.207-.314-1.583-.283-.29-.715-.36-1.422-.36h-2.07v2.955h-1.95v-8.088H58.4c.982 0 1.696.044 2.333.382.612.37.997.874.997 1.796 0 1.29-.864 1.95-1.374 2.152zm2.45-4.33h6.47v1.673h-4.54v1.47h4.43v1.65h-4.43v1.61l4.54.007v1.678h-6.47v-8.088zm-13.08 3.733H47.22v-2.06h2.527c.7 0 1.186.285 1.186.992 0 .698-.462 1.067-1.207 1.067zm-4.435 3.62l-2.976-3.295 2.977-3.19v6.485zm-7.686-.95h-4.765v-1.61h4.256v-1.65h-4.255v-1.47h4.86l2.12 2.357-2.214 2.373zm15.412-3.738c0 2.246-1.68 2.71-3.375 2.71h-2.42v2.712H43.45l-2.387-2.677-2.48 2.677h-7.68v-8.088H38.7l2.385 2.652 2.466-2.652h6.195c1.54 0 3.267.425 3.267 2.665zM21.655 23.624L20.328 20.4l-1.32 3.224h2.647zm29.23-1.283c-.267.162-.582.167-.96.167h-2.354V20.71h2.388c.337 0 .69.016.92.147.25.118.406.37.406.715 0 .353-.148.638-.4.77zm16.8 1.284L66.342 20.4l-1.334 3.224h2.674zm-31.317 3.49H34.38l-.006-6.333-2.81 6.333H29.86l-2.818-6.338v6.338H23.1l-.745-1.803h-4.037l-.752 1.803H15.46l3.472-8.085h2.88l3.297 7.655v-7.655h3.163l2.537 5.485 2.33-5.485h3.228v8.085zm7.92 0h-6.475v-8.086h6.476v1.683H39.75v1.46h4.428v1.656h-4.428v1.615h4.537v1.673zm9.13-5.91c0 1.29-.862 1.956-1.365 2.156.425.16.787.446.96.68.273.403.32.763.32 1.485v1.588h-1.955l-.007-1.02c0-.486.047-1.186-.305-1.575-.284-.284-.715-.346-1.413-.346h-2.08v2.94h-1.94V19.03h4.46c.99 0 1.72.026 2.347.387.612.36.98.888.98 1.79zm3.104 5.91h-1.978v-8.086h1.978v8.085zm22.947 0H76.72l-3.675-6.07v6.07H69.1l-.755-1.804h-4.027l-.732 1.803h-2.268c-.942 0-2.135-.208-2.81-.894-.682-.688-1.037-1.618-1.037-3.088 0-1.2.213-2.295 1.046-3.162.627-.645 1.608-.942 2.944-.942h1.877v1.732H61.5c-.708 0-1.107.105-1.492.48-.33.34-.557.983-.557 1.83 0 .867.173 1.49.534 1.9.298.32.84.417 1.35.417h.87l2.734-6.36h2.904l3.282 7.65v-7.65h2.952l3.407 5.632v-5.632h1.986v8.085zM15.437 28.7h3.312l.747-1.795h1.672l.744 1.796h6.517V27.33l.583 1.38h3.383l.58-1.4V28.7h16.197l-.007-2.947h.313c.218.008.282.028.282.39V28.7h8.377v-.685c.675.36 1.725.686 3.108.686h3.524l.754-1.795h1.672l.738 1.796h6.79v-1.705l1.03 1.706h5.44V17.425h-5.385v1.332l-.753-1.332H69.53v1.332l-.69-1.332h-7.466c-1.25 0-2.348.174-3.235.66v-.66h-5.152v.66c-.565-.5-1.334-.66-2.19-.66h-18.82l-1.262 2.913-1.296-2.913h-5.928v1.332l-.65-1.332h-5.057l-2.347 5.362V28.7z" fill="#FFF"/></g></svg>
